X: 5
T: Al HaNissim
Z: Gideon Klionsky
R:
K: Dmin
C: Dov Frimer
Q: 1/4=60
%
%
M: 2/4
L: 1/8
"Dm" zd2 c | A2 F2 | "Gm" G G2 F | D2 "C" E2 | "Bb" F F2 F | G2 F2 | "A" A A2 A | B2 AA |
"Dm" Addc | A2 GF | "Gm" GAGF | D2 "C" E2 | "Bb" FFFA | "Am" GCCE | "Dm" D4-|D4  :|
|: "Dm" d2 e2  | f2 d2 | "C" g g2 f | e2 c2 | "Am" c c2 d | e2 c2 | "Bb" d d2 e | f2 dd |
"Dm" ddde | f2 dd | "Gm" gggf | "C" e2 c2 | cccc | "Am" cdec |1 "Bb" d4- | d4 :|2 "Dm" d4- | d4|]
%
W:עַל הַנִּסִּים וְעַל הַפֻּרְקָן
W:וְעַל הַגְּבוּרוֹת וְעַל הַתְּשׁוּעוֹת
W:וְעַל הַמִּלְחָמוֹת שֶׁעָשִֽׂיתָ לַאֲבוֹתֵֽינוּ
W:בַּיָּמִים הָהֵם בַּזְּמַן הַזֶּה:
W:
W:Al Hanissim v’al hapurkan
W:V’al hag’vurot v’al hat’shu’ot
W:V’al hamilchamot she’asita la’avotienu
W:Bayamim haheim baz’man hazeh

